X: 28
T: No_24_Sun_Dance_Song_(g).krn
N: Derived from No_24_Sun_Dance_Song_(g).krn
%%abc-version 2.0
%%abcx-abcm2ps-target-version 5.9.1 (29 Sep 2008)
%%abc-creator hum2abc beta
%%abcx-conversion-date 2019/03/15 08:36:49
%%humdrum-veritas 1620432314
%%humdrum-veritas-data 3734334930
%%linebreak <none>
%%barnumbers 0
L: 1/8
M: 3/4
%%staves {1 2}
V: 1 clef=bass
V: 2 clef=bass
K: Eb
[V:1] G [I:setbarnb 1]| 
[V:2] z | 
[V:1] G3E GG ||  
[V:2] G,,G,, G,,G,, G,,G,, ||  
[V:1] [M:2/4]G3E ||  
[V:2] [M:2/4]z4 ||  
[V:1] [M:3/4]FF F3/G/ GF ||  
[V:2] [M:3/4]z6 ||  
[V:1] [M:2/4]E2C2 ||  
[V:2] [M:2/4]z4 ||  
[V:1] [M:3/4]G,G,G,4 | 
[V:2] [M:3/4]z6 | 
[V:1] EEE3G, | 
[V:2] z6 | 
[V:1] EEE3G, | 
[V:2] z6 | 
[V:1] CCC3G, | 
[V:2] z6 | 
[V:1] G,G,G,3E, | 
[V:2] z6 | 
[V:1] F,F, F,3/G,/ G,F, ||  
[V:2] z6 ||  
[V:1] [M:2/4]E,2(3F,E,C, | 
[V:2] [M:2/4]z4 | 
[V:1] C,4 |]  
[V:2] z4 |]  



